tools/download-figma-icons/icons/outlined-large/surface-100.svg

<svg width="64" height="64" viewBox="0 0 64 64" fill="none" xmlns="http://www.w3.org/2000/svg">
<path d="M32.093 50.0005C31.848 50.0005 31.603 49.9405 31.381 49.8205L0.788 33.3215C0.302 33.0595 0 32.5515 0 31.9995C0 31.4475 0.305 30.9405 0.791 30.6795L16.181 22.4295L31.377 14.1825C31.824 13.9405 32.361 13.9405 32.809 14.1825L63.216 30.6825C63.699 30.9445 64 31.4505 64 32.0005C64 32.5505 63.699 33.0565 63.216 33.3185L32.809 49.8185C32.585 49.9395 32.339 50.0005 32.093 50.0005ZM4.667 32.0045L32.091 46.7955L59.355 32.0015L32.093 17.2075L17.606 25.0695L4.668 32.0055L4.667 32.0045Z" fill="black"/>
</svg>

<svg xmlns="http://www.w3.org/2000/svg" width="64" height="64" fill="none" viewBox="0 0 64 64"><path fill="currentColor" d="M32.093 50c-.245 0-.49-.06-.712-.18L.788 33.323a1.501 1.501 0 0 1 .003-2.643l15.39-8.25 15.196-8.246a1.5 1.5 0 0 1 1.432 0l30.407 16.5a1.5 1.5 0 0 1 0 2.636l-30.407 16.5c-.224.12-.47.181-.716.181M4.667 32.005l27.424 14.79 27.264-14.794-27.262-14.793-14.487 7.862z"/></svg>
